!!!!SEGMENT: pl-kk--kk-i-3--015-001_anonim--sabbativale-sanctus.krn
!!!cenid: 15xx:618
!!!COM: Anonim
!!!COM-rismid: pe30004985
!!!CDT:
!!!CNT:
!!!OPR: Sabbativale
!!!OTL: Sanctus
!!!OMV: 001
!!!PDT:
!!!AGN:
!!!SMS-siglum: PL-Kk
!!!SMS-shelfmark: Kk.I.3
!!!SMS-shelfwork: 015-001 M
!!!SMS-variant:
!!!SMS-altvar:
!!!NIFC-rismid: 1001145493
!!!system-decoration: [(s1,s2,s3)]
**kern	**text	**kern	**text	**kern	**text
*part3	*part3	*part2	*part2	*part1	*part1
*staff3	*staff3	*staff2	*staff2	*staff1	*staff1
*Ibass	*	*Itenor	*	*Ivox	*
*I"Basso	*	*I"Tenore	*	*I"Canto	*
*I'B.	*	*I'T.	*	*I'C.	*
*clefF4	*	*clefC4	*	*clefC3	*
*k[b-]	*	*k[]	*	*k[]	*
*F:	*	*F:	*	*F:	*
*M2/1	*	*M2/1	*	*M2/1	*
*	*	*met(c|)	*	*	*
=1-	=1-	=1-	=1-	=1-	=1-
*clefF3	*	*clefC3	*	*	*
*2\right	*	*2\right	*	*2\right	*
*lig	*	*lig	*	*	*
!LO:TX:a:B:t=Sabbatie:color=red	!	!LO:TX:a:B:t=Sabbatie:color=red	!	!	!
!	!	!	!	!LO:TX:t=P:problem:w źródle adnotacja ".t." przed pierwszą nutą [obok klucz C3]	!
!LO:TX:t=P:problem:w źródle znak przykluczowy b- oktawe niżej	!	!	!	!	!
1F	San-	1F	San-	0f	San-
1D	.	1A	.	.	.
*Xlig	*	*Xlig	*	*	*
=2-	=2-	=2-	=2-	=2-	=2-
*	*	*lig	*	*	*
1C	.	1c	.	1e	.
1D	.	1A	.	0f	.
*	*	*Xlig	*	*	*
=3-	=3-	=3-	=3-	=3-	=3-
*	*	*lig	*	*	*
1BB-	.	1d	.	.	.
1C	.	1c	.	1e	.
*	*	*Xlig	*	*	*
=4-	=4-	=4-	=4-	=4-	=4-
*	*	*lig	*	*	*
1F	.	1A	.	1c	.
1D	.	1F	.	1d	.
*	*	*Xlig	*	*	*
=5-	=5-	=5-	=5-	=5-	=5-
2C/	.	0G	.	2e\	.
2BB-/	.	.	.	1f	.
1C	.	.	.	.	.
.	.	.	.	2e/	.
=6-	=6-	=6-	=6-	=6-	=6-
!LO:SIC:v:t=custos F	!	!	!	!LO:SIC:v:t=custos c	!
0F;>	-ctus	0F;>	-ctus	0f;<	-ctus
!LO:PB:g=original	!	!	!	!LO:LB:g=original	!
=7-	=7-	=7-	=7-	=7-	=7-
0F	San-	0f	S(an)-	0c	San-
=8-	=8-	=8-	=8-	=8-	=8-
1C	.	1e	.	1c	.
!	!	!LO:SIC:v:t=custos g	!	!	!
1G	.	0d	.	1B	.
=9-	=9-	=9-	=9-	=9-	=9-
2G/	.	.	.	2B/	.
2F/	.	.	.	2A/	.
!	!	!LO:PB:g=original	!	!	!
*	*	*lig	*	*	*
2E/	.	1g	.	2G/	.
2C/	.	.	.	1c\	.
=10-	=10-	=10-	=10-	=10-	=10-
1D	.	1f	.	.	.
.	.	.	.	2B/	.
*	*	*Xlig	*	*	*
*	*	*lig	*	*	*
1C	.	1e	.	2c/	.
.	.	.	.	1g\	.
=11-	=11-	=11-	=11-	=11-	=11-
1G	.	1d	.	.	.
.	.	.	.	2g\	.
*	*	*Xlig	*	*	*
0C;>	-ctus	0c;>	-ctus .	0e;<	-ctus
=12-	=12-	=12-	=12-	=12-	=12-
.	.	.	.	.	.
*lig	*	*lig	*	*	*
1F	San-	1f	San-	0c	San-
=13-	=13-	=13-	=13-	=13-	=13-
!LO:SIC:v:t=custos D	!	!	!	!	!
1C	.	1e	.	.	.
*Xlig	*	*Xlig	*	*	*
!LO:LB:g=original	!	!	!	!	!
*kcancel	*	*	*	*	*
*k[]	*	*	*	*	*
*	*	*lig	*	*	*
!LO:TX:t=P:problem:w źródle znak przykluczowy dalej nierozpisany	!	!	!	!	!
0D	.	1d	.	2A/	.
!	!	!	!	!LO:SIC:v:t=custos f	!
.	.	.	.	1F/	.
!	!	!	!	!LO:PB:g=original	!
=14-	=14-	=14-	=14-	=14-	=14-
.	.	1A	.	.	.
.	.	.	.	1f	.
*	*	*Xlig	*	*	*
*	*	*lig	*	*	*
1BB	.	1d	.	.	.
.	.	.	.	2f/	.
=15-	=15-	=15-	=15-	=15-	=15-
1C	.	1c	.	1e	.
*	*	*Xlig	*	*	*
*	*	*lig	*	*	*
1F	.	1A	.	1c	.
=16-	=16-	=16-	=16-	=16-	=16-
2D/	.	1F	.	1d	.
2BB/	.	.	.	.	.
*	*	*Xlig	*	*	*
*	*	*lig	*	*	*
1F	.	1A	.	2c/	.
.	.	.	.	2d/	.
=17-	=17-	=17-	=17-	=17-	=17-
2C/	.	1c	.	2e/	.
1c	.	.	.	2f/	.
*	*	*Xlig	*	*	*
*	*	*lig	*	*	*
.	.	1d	.	1g	.
2B\	.	.	.	.	.
=18-	=18-	=18-	=18-	=18-	=18-
2c\	.	1c	.	2e/	.
2C/	.	.	.	1c	.
*	*	*Xlig	*	*	*
*	*	*lig	*	*	*
1D	.	1f	.	.	.
.	.	.	.	2B/	.
=19-	=19-	=19-	=19-	=19-	=19-
1C	.	1e	.	1c	.
*	*	*Xlig	*	*	*
*	*	*lig	*	*	*
!	!	!	!	!LO:SIC:v:t=custos e	!
1G	.	1d	.	1d	.
!	!	!	!	!LO:LB:g=original	!
=20-	=20-	=20-	=20-	=20-	=20-
!LO:SIC:v:t=custos F	!	!	!	!	!
1C	.	1c	.	1e	.
*	*	*Xlig	*	*	*
!LO:LB:g=original	!	!	!	!	!
*lig	*	*lig	*	*	*
1F	.	1A	.	2f\	.
.	.	.	.	2F/	.
=21-	=21-	=21-	=21-	=21-	=21-
!	!	!LO:SIC:v:t=custos G	!	!	!
1D	.	1F	.	2A/	.
.	.	.	.	2B/	.
*Xlig	*	*Xlig	*	*	*
!	!	!LO:LB:g=original	!	!	!
1C	.	1G	.	1c	.
=22-	=22-	=22-	=22-	=22-	=22-
1c	-ctus	1F	-ctus	1A	-ctus
1c	do-	1A	do-	1f	do-
=23-	=23-	=23-	=23-	=23-	=23-
1c	-mi-	1A	-mi-	1e	-mi-
!	!	!LO:TX:t=P:problem:kreska oddechu na różnych liniach [rozdzielacz słów / znak oddechu]:global	!	!	!
2d\	-nus	1F,<	-nus	1f	-nus
1c\	de-	.	.	.	.
=24-	=24-	=24-	=24-	=24-	=24-
.	.	1A	de-	1e	de-
2A\	-us	.	.	.	.
*lig	*	*	*	*	*
1F	Sab-	1c,<	-us	1f	-us
=25-	=25-	=25-	=25-	=25-	=25-
1D	.	1d	Sab-	1a	Sab-
*Xlig	*	*	*	*	*
1G	-ba-	1d	-ba-	1g	-ba-
=26-	=26-	=26-	=26-	=26-	=26-
!	!	!	!	!LO:SIC:v:t=custos c	!
0C;>	-oth	0c;>	-oth.	0e;<	-oth
!	!	!	!	!LO:LB:g=original	!
=27-	=27-	=27-	=27-	=27-	=27-
1F	Ple-	1f	Ple-	1c	Ple-
!LO:SIC:v:t=custos C	!	!	!	!	!
1D	-ni	1f,<	-ni	1d	-ni
!LO:LB:g=original	!	!	!	!	!
=28-	=28-	=28-	=28-	=28-	=28-
!	!	!LO:SIC:v:t=custos d	!	!	!
2C/	sunt	1e,<	su(n)t	1e	sunt
1c	ce-	.	.	.	.
!	!	!LO:LB:g=original	!	!	!
.	.	1d	cae-	1g	ce-
2B\	.	.	.	.	.
=29-	=29-	=29-	=29-	=29-	=29-
1c	-li	1e,<	-li	1e	-li
*	*	*lig	*	*	*
1C	et	1g	et	2e/	et
.	.	.	.	1c\	.
=30-	=30-	=30-	=30-	=30-	=30-
1D	.	1f	.	.	.
.	.	.	.	2B/	.
*	*	*Xlig	*	*	*
1C	.	1e,<	.	2c/	.
.	.	.	.	1g\	ter-
=31-	=31-	=31-	=31-	=31-	=31-
1G	ter-	1d	ter-	.	.
.	.	.	.	2g\	-ra
2C/	-ra	0c	-ra	2e/	glo-
1F\	glo-	.	.	1a\	.
=32-	=32-	=32-	=32-	=32-	=32-
.	.	.	.	.	.
2E/	.	.	.	2g\	.
*	*	*lig	*	*	*
1D	.	1f	glo-	2f\	.
!	!	!	!	!LO:SIC:v:t=custos g	!
.	.	.	.	2d/	.
!	!	!	!	!LO:LB:g=original	!
=33-	=33-	=33-	=33-	=33-	=33-
2C/	.	1e	.	1g	-ri-
1c	.	.	.	.	.
*	*	*Xlig	*	*	*
.	.	1d	-ri-	2f/	-a
!LO:SIC:v:t=custos A	!	!	!	!	!
2B\	-ri-	.	.	2d/	.
!LO:LB:g=original	!	!	!	!	!
=34-	=34-	=34-	=34-	=34-	=34-
1A	.	1A,<	-a	2e/	tu-
.	.	.	.	2f/	.
*	*	*lig	*	*	*
1G	.	1d	tu-	1g	.
=35-	=35-	=35-	=35-	=35-	=35-
*	*	*	*	*lig	*
1C	-a	1c	.	1e	.
*lig	*	*Xlig	*	*	*
*	*	*lig	*	*	*
1F	tu-	1A	.	1c	.
*	*	*	*	*Xlig	*
=36-	=36-	=36-	=36-	=36-	=36-
1D	.	1F	.	1d	.
*Xlig	*	*Xlig	*	*	*
*	*	*lig	*	*	*
1D	.	1A	.	1f	.
=37-	=37-	=37-	=37-	=37-	=37-
*lig	*	*	*	*	*
1C	.	1c	.	1e	.
*	*	*Xlig	*	*	*
*	*	*lig	*	*	*
1BB	.	1d	.	1f	.
*Xlig	*	*	*	*	*
=38-	=38-	=38-	=38-	=38-	=38-
1C	.	1c	.	2e/	.
.	.	.	.	1c	.
*	*	*Xlig	*	*	*
*	*	*lig	*	*	*
1D	.	1f	.	.	.
.	.	.	.	2B/	.
=39-	=39-	=39-	=39-	=39-	=39-
!	!	!LO:SIC:v:t=custos d	!	!LO:SIC:v:t=custos d	!
2C/	.	1e	.	1c	.
1c	.	.	.	.	.
*	*	*Xlig	*	*	*
!	!	!LO:LB:g=original	!	!LO:LB:g=original	!
*	*	*lig	*	*	*
.	.	1d	.	1d	.
2B\	.	.	.	.	.
=40-	=40-	=40-	=40-	=40-	=40-
1A	.	1c	.	1e	.
*lig	*	*Xlig	*	*	*
*	*	*lig	*	*	*
1F	.	1A	.	2f\	.
.	.	.	.	2c/	.
=41-	=41-	=41-	=41-	=41-	=41-
1D	.	1F	.	2d/	.
.	.	.	.	1f	.
*Xlig	*	*Xlig	*	*	*
!LO:TX:t=P:problem:w źródle dźwięk niewidoczny	!	!	!	!	!
1ryy	.	1G	.	.	.
.	.	.	.	2e/	.
!LO:PB:g=original	!	!	!	!	!
=42-	=42-	=42-	=42-	=42-	=42-
0F;>	-a	0F;>	-a	0f;<	-a
=43-	=43-	=43-	=43-	=43-	=43-
*lig	*	*	*	*lig	*
1F	o-	0f	o-	1c	o-
1D	.	.	.	1d	.
*Xlig	*	*	*	*Xlig	*
=44-	=44-	=44-	=44-	=44-	=44-
*	*	*lig	*	*lig	*
2C/	.	1e	.	1e	.
1c	.	.	.	.	.
.	.	1d	.	1g	.
2B/	.	.	.	.	.
*	*	*Xlig	*	*Xlig	*
=45-	=45-	=45-	=45-	=45-	=45-
1c	.	1e	.	1e	.
*	*	*lig	*	*	*
1C	.	1g	.	2e\	.
!	!	!	!	!LO:SIC:v:t=custos B	!
.	.	.	.	1c\	.
=46-	=46-	=46-	=46-	=46-	=46-
*lig	*	*	*	*	*
1D	.	1f	.	.	.
!	!	!	!	!LO:PB:g=original	!
.	.	.	.	2B/	.
*	*	*Xlig	*	*	*
1C	.	1e	.	2c/	.
.	.	.	.	1g\	-san-
*Xlig	*	*	*	*	*
=47-	=47-	=47-	=47-	=47-	=47-
1G	-san-	1d	san-	.	.
.	.	.	.	2g\	-na
2C/	-na	0c,<	-na	2e/	.
1F\	.	.	.	1a\	in
=48-	=48-	=48-	=48-	=48-	=48-
.	.	.	.	.	.
2E/	in	.	.	2g\	ex-
1D	ex-	1f,<	in	2f\	.
.	.	.	.	2d/	.
!LO:LB:g=original	!	!	!	!	!
=49-	=49-	=49-	=49-	=49-	=49-
!	!	!LO:SIC:v:t=custos d	!	!	!
2C/	.	1e	ex-	1g	.
1c	.	.	.	.	.
!	!	!LO:LB:g=original	!	!	!
*	*	*lig	*	*	*
.	.	1d	-cel-	2f\	.
2B\	.	.	.	2d/	.
=50-	=50-	=50-	=50-	=50-	=50-
1A	.	1A,<	.	2e/	.
.	.	.	.	2f\	.
*	*	*Xlig	*	*	*
*	*	*lig	*	*	*
!	!	!	!	!LO:SIC:v:t=custos e	!
1G	.	1d	.	1g	.
!	!	!	!	!LO:LB:g=original	!
=51-	=51-	=51-	=51-	=51-	=51-
*	*	*	*	*lig	*
1C	.	1c	.	1e	.
*	*	*Xlig	*	*	*
*	*	*lig	*	*	*
1F	.	1A	.	1c	.
*	*	*	*	*Xlig	*
=52-	=52-	=52-	=52-	=52-	=52-
0D	.	1F	.	1d	.
*	*	*Xlig	*	*	*
*	*	*lig	*	*	*
.	.	1A	.	1f	.
=53-	=53-	=53-	=53-	=53-	=53-
*lig	*	*	*	*	*
1C	.	1c	.	1e	.
*	*	*Xlig	*	*	*
*	*	*lig	*	*	*
1BB	.	1d	.	1f	.
*Xlig	*	*	*	*	*
=54-	=54-	=54-	=54-	=54-	=54-
1C	.	1c	.	2e/	.
.	.	.	.	1c	.
*	*	*Xlig	*	*	*
*	*	*lig	*	*	*
1D	.	1f	.	.	.
.	.	.	.	2B/	.
=55-	=55-	=55-	=55-	=55-	=55-
2C/	.	1e	.	1c	.
1c	.	.	.	.	.
*	*	*Xlig	*	*	*
*	*	*lig	*	*	*
.	.	1d	.	1d	.
2B\	.	.	.	.	.
=56-	=56-	=56-	=56-	=56-	=56-
1A	.	1c	.	1e	.
*	*	*Xlig	*	*	*
*	*	*lig	*	*	*
1F	.	1A	.	2f/	.
.	.	.	.	2c/	.
!LO:LB:g=original	!	!	!	!	!
=57-	=57-	=57-	=57-	=57-	=57-
*lig	*	*	*	*	*
1D	-el-	1F	.	2d/	.
!	!	!	!	!LO:SIC:v:t=custos e	!
.	.	.	.	1f	-xel-
*	*	*Xlig	*	*	*
1C	.	1G	.	.	.
!	!	!	!	!LO:LB:g=original	!
.	.	.	.	2e/	.
*Xlig	*	*	*	*	*
=58-	=58-	=58-	=58-	=58-	=58-
!LO:TX:a:t=P:w źródle brak kreski końcowej:problem	!	!LO:TX:a:t=P:w źródle brak kreski końcowej:problem	!	!	!
!	!	!	!	!LO:TX:a:t=P:w źródle brak kreski końcowej:problem	!
0F;>	-ſis	0F;>	-sis	0f;<	-ſis
==	==	==	==	==	==
*-	*-	*-	*-	*-	*-
!!title: @{OTL};
!!!RDF**kern: > = above
!!!RDF**kern: < = below
!!!RDF**kern: | = vertical stroke
!!!RDF**kern: N = linked
!!!RDF**kern: i = editorial accidental
!!!RDF**kern: l = terminal long
!!!AIN: 1 bass 1 tenor 1 vox
!!!ENC: Filip Voros
!!!END: 2022-01-02
!!!EED: Wojciech Jakubiak-Danek
!!!EST: 2022-01-03
!!!URL-scan: http://repozytorium.nifc.pl/skany/pl-kk-nut--i-3
!!!ONB-nifc: UWAGA: Discantus (s. 69r-70r, skan 0071-0072), Tenor (s. 47v-48r, skan 0220), Bassus (s. 64v-65v, skan 0368-0369). Następna część: Benedictus
